X:1
T:The Frost Is All Over
R:jig
M:6/8
L:1/8
K:D
A|:def edc|dAF GFE|DFA DFA|~B2d efg|
|~f2a edc|dAF GFE|DFA DFA|1 BAF d2A:|2 BAF d3|]
|~a2a daf|~g2b bag|~f2a fga|~g2b efg|
|~f2a daf|~g2b bag|fga efg|fdc d2e|
|fga daf|~g2b bag|~f2a fga|~g2b efg|
|fga efg|fdB Adc|~B2d efg|~f2a gfe|